X: 0502
T: Dumbarton Drums
P: Dumbarton Drums
C:McGibbon 1763
R:Reel (8x32)
B:RSCDS 5-2
Z:Anselm Lingnau <anselm@strathspey.org>
M:C
L:1/8
K:F
|:FG|"F"A3c ABGA|F2 c>d c2 BA|"Gm"GFGA BAGF|D2 d>e d2 cd|
     "F"f3g agfd|cA"Gm"cd "F"f3 F|"Bb"GAfd "C"cAGF|"Dm"D2 d>e [d2F2]:|
|:cd|"F"f3g fgag|f2 a>b a2gf|"Gm"gfga bagf|d2 g>a g2 "Bb"fd|
     "F"cdfg ag"Bb"fd|"F"cA"C"cd "F"[f2A2] fg|\
         "Dm"[aA]gfd "Am"[cE]AGF|"Dm"D2 de [d2F2]:|
%%center Book05/0502-Dumbarton_Drums-AL.abc

%%sep 1 1 500
%%sep 1 1 500

